X:1
T:Title
%%score { 1 | 2 }
L:1/8
M:6/4
K:Db
V:1 treble nm="Grand Piano"
V:2 bass 
V:1
 z4 [Ad]2- [Ad]2 | [Ae]2 [Ad]2 [dg]2- [dg]2 [df]4 | [cf]2 [ce]2 [Bd]2- [Bd]2 [Ac]4 | %3
 B2 [Be]2 [Ad]2- [Ad]2 [Ac]4 |[M:4/4] [Ad]8 |[M:2/4] [ce]4 | %6
[M:6/4] [ce]2 [Bd]2 [Ac]2- [Ac]2 [eg]4 | [eg]2 [df]2 [ce]2- [ce]2 d4 | %8
 [da]2 [dg]2 [df]2- [df]2 [ce]4 |[M:4/4] d8 |] %10
V:2
 z4 [D,F,]2- [D,F,]2 | [D,G,]2 [D,F,]2 [D,B,]2- [D,B,]2 [D,A,]4 | %2
 [A,,A,]2 [A,,G,]2 [B,,F,]2- [B,,F,]2 [F,,E,]4 | [G,,D,]2 [G,,G,]2 [A,,F,]2- [A,,F,]2 [A,,E,]4 | %4
[M:4/4] [D,F,]8 |[M:2/4] [A,,E,]4 |[M:6/4] [A,,F,]2 [A,,=G,]2 [A,,A,]2- [A,,A,]2 [A,,A,]4 | %7
 [C,A,]2 [D,A,]2 A,2- A,2 [F,A,]4 | [G,B,]2 [G,B,]2 A,2- A,2 [A,,G,]4 |[M:4/4] [D,F,]8 |] %10

